!!!COA:	Josquin des Prez
!!!CDT:	~1450-1521/08/27
!!!OTL:	Ave festiva ferculis
!!!AGN:	Motet
!!!SCT:	NJE 23.3
!!!SCA:	New Josquin Edition 23.3
!!!voices:	4
**kern	**kern	**kern	**kern
*staff4	*staff3	*staff2	*staff1
*Ivox	*Ivox	*Ivox	*Ivox
*I"Bassus	*I"Tenor	*I"Altus	*I"Superius
*I'B	*I'T	*I'A	*I'S
*clefF4	*clefGv2	*clefGv2	*clefG2
*k[]	*k[]	*k[]	*k[]
*M2/1	*M2/1	*M2/1	*M2/1
*met(C|)	*met(C|)	*met(C|)	*met(C|)
!!section: Ave festiva ferculis
!!!OMD: Ave festiva ferculis
=1-	=1-	=1-	=1-
0c	0r	0r	0r
=2	=2	=2	=2
1c	0r	0r	0r
1d	.	.	.
=3	=3	=3	=3
2.e\	0r	0c	0r
4d\	.	.	.
4c\	.	.	.
4B\	.	.	.
[2A\	.	.	.
=4	=4	=4	=4
4A\]	0r	1c	0r
4G\	.	.	.
1c	.	.	.
.	.	1d	.
2B\	.	.	.
=5	=5	=5	=5
2.c\	0r	2.e\	0cc
4B\	.	4d\	.
4A\	.	4c\	.
4G\	.	4B\	.
[2F\	.	[2A/	.
=6	=6	=6	=6
4F\]	0r	4A/]	1cc
4E\	.	4G/	.
4D\	.	1c	.
4C/	.	.	.
1G	.	.	1dd
.	.	2B\	.
=7	=7	=7	=7
1C	0c	2.c\	2.ee\
.	.	4B\	4dd\
1r	.	4A/	4cc\
.	.	4G/	4b\
.	.	[2F/	[2a/
=8	=8	=8	=8
0r	1c	4F/]	4a/]
.	.	4E/	4g/
.	.	4D/	1cc
.	.	4C/	.
.	1d	1G	.
.	.	.	2b\
=9	=9	=9	=9
1C	2.e\	1G	2.cc\
.	4d\	.	4b\
2C/	4c\	2g\	4a/
.	4B\	.	4g/
[2F\	[2A/	[2a\	[2f/
=10	=10	=10	=10
4F\]	4A/]	2a\]	4f/]
4G\	4G/	.	4e/
2A\	1c	2f\	4d/
.	.	.	4c/
1G	.	1g	1d
.	2B\	.	.
=11	=11	=11	=11
[0C	[0c	[0G	0e
=12	=12	=12	=12
0C]	0c]	0G]	1r
.	.	.	1g
=13	=13	=13	=13
1r	0r	1c	1a
1G	.	2d\	1b
.	.	[2e\	.
=14	=14	=14	=14
1A	1r	4e\]	1cc
.	.	4d\	.
.	.	4e\	.
.	.	4f\	.
1B	1G	1g	2b\
.	.	.	[2g/
=15	=15	=15	=15
1c	1A	2r	2g/]
.	.	2c\	2f#i/
1G	1B	2d\	1g
.	.	[2e\	.
=16	=16	=16	=16
1A	1c	4e\]	1r
.	.	4d\	.
.	.	4e\	.
.	.	4f\	.
1G	2B\	2g\	1dd
.	[2G/	2d\	.
=17	=17	=17	=17
1A	2G/]	2.f\	2.cc\
.	2F/	.	.
.	.	4e\	4a/
2G\	1G	2d\	2b\
2E\	.	2c\	[2g/
=18	=18	=18	=18
1D	1A	1d	2g/]
.	.	.	2f#i/
1E	1G	1B	1g
=19	=19	=19	=19
1C	0r	1c	2r
.	.	.	1cc
1r	.	1r	.
.	.	.	2b\
=20	=20	=20	=20
2r	0r	0r	1cc
1c	.	.	.
.	.	.	2r
2B\	.	.	2dd\
=21	=21	=21	=21
1c	0r	2r	1ee
.	.	1c	.
2r	.	.	2dd\
2d\	.	2B\	2dd\
=22	=22	=22	=22
1e	2r	1c	2cc\
.	1c	.	4b\
.	.	.	4a/
2d\	.	2r	1g
2d\	2B\	2d\	.
=23	=23	=23	=23
2c\	1c	1e	1r
4A\	.	.	.
4c\	.	.	.
1G	2r	2d\	1g
.	2d\	2d\	.
=24	=24	=24	=24
1C	1e	2c\	2.g/
.	.	4A/	.
.	.	4c\	4a/
1r	2d\	1G	4b\
.	.	.	4cc\
.	2d\	.	2dd\
=25	=25	=25	=25
0r	2c\	2g\	2ee\
.	4B\	2c\	1cc
.	4A/	.	.
.	1G	1d	.
.	.	.	2b\
=26	=26	=26	=26
[0C	0G	0c	0cc
=27	=27	=27	=27
0C]	0c	0e	1r
.	.	.	1g
=28	=28	=28	=28
2F\	0c	1f	2a/
2G\	.	.	2b\
1A	.	2e\	1cc
.	.	2f\	.
=29	=29	=29	=29
[0G	0d	0g	0b
=30	=30	=30	=30
0G]	0B	1r	1r
.	.	1g	1dd
=31	=31	=31	=31
1C	1c	1g	1ee
1C	1c	1a	1ee
=32	=32	=32	=32
0F	0d	0f	1dd
.	.	.	2a/
.	.	.	2b\
=33	=33	=33	=33
0E	0e	0g	1cc
.	.	.	[1b
=34	=34	=34	=34
1G	1d	1g	1b]
1A	1c	1f	1a
=35	=35	=35	=35
0E	0B	0e	0b
=36	=36	=36	=36
0r	0r	1r	1r
.	.	1e	1g
=37	=37	=37	=37
0r	0r	2.c\	1a
.	.	4d\	.
.	.	4e\	2g/
.	.	4f\	.
.	.	[2g\	[2e/
=38	=38	=38	=38
0r	0r	4g\]	2e/]
.	.	4f\	.
.	.	1e	2g/
.	.	.	1f
.	.	2d\	.
=39	=39	=39	=39
0r	0r	0e	0e
=40	=40	=40	=40
0E	0B	1r	1r
.	.	1g	1ee
=41	=41	=41	=41
0C	0c	0g	0ee
=42	=42	=42	=42
0F	0c	0a	0ff
=43	=43	=43	=43
0C	0c	0g	[0ee
=44	=44	=44	=44
0r	0r	1c	1ee]
.	.	2d\	2dd\
.	.	[2e\	[2cc\
=45	=45	=45	=45
0r	0r	4e\]	4cc\]
.	.	4f\	4b\
.	.	1g	4a/
.	.	.	4g/
.	.	.	1a
.	.	2f#i\	.
=46	=46	=46	=46
0r	0r	1g	1g
.	.	2G/	2e/
.	.	[2A/	[2f/
=47	=47	=47	=47
0r	0r	4A/]	4f/]
.	.	4G/	4e/
.	.	1c	4d/
.	.	.	4c/
.	.	.	1d
.	.	2B\	.
=48	=48	=48	=48
0r	0r	0c	0c
=49	=49	=49	=49
0C	0c	0G	1r
.	.	.	1ee
=50	=50	=50	=50
0BB-i	0d	0B-i	0ff
=51	=51	=51	=51
0C	1c	1G	0ee
.	1e	1g	.
=52	=52	=52	=52
0F	0f	0a	1dd
.	.	.	[1cc
=53	=53	=53	=53
0G	0d	0g	1cc]
.	.	.	1b
=54	=54	=54	=54
0C;	0c;	0g;	0cc;
=55	=55	=55	=55
!	!	!	!LO:TX:Z=38:t=Text&colon; Monte LIbano magis candida virgo
3%4cV	0r	3%2.eV	3%2.gV
.	.	3f\	3a/
3%2GZ	.	3%2gZ	3%2bZ
=56	=56	=56	=56
3%2AV	0r	3%2cV	3%4ccV
3%4GZ	.	3%4dZ	.
.	.	.	3%2bZ
=57	=57	=57	=57
3%4CV	3%2.GV	3%4cV	3%4ccV
.	3A/	.	.
3%2rZ	3%2BZ	3%2rZ	3%2rZ
=58	=58	=58	=58
3%4CV	3%4cV	3%4gV	3%4eeV
3%2DZ	3%2BZ	3%2fZ	3%2ffZ
=59	=59	=59	=59
3%2CV	3%4cV	3%2aV	3%2eeV
3%4GZ	.	3%4gZ	3%4ddZ
.	3%2rZ	.	.
=60	=60	=60	=60
3%4CV	3%4eV	3%4gV	3%2.ccV
.	.	.	3b\
3%2rZ	3%2fZ	3%2rZ	3%2aZ
=61	=61	=61	=61
0r	3%2eV	0r	3%2gV
.	3%4dZ	.	3%4fZ
=62	=62	=62	=62
3%4CV	3%4cV	3%4.g	3%4eV
3%2GZ	3%2BZ	.	3%2dZ
=63	=63	=63	=63
3%2EV	3%2GV	3%2cV	3%4gV
3%4DZ	3%4AZ	3%4dZ	.
.	.	.	3%2f#iZ
=64	=64	=64	=64
0d;	0G;	0B;	0g;
=65	=65	=65	=65
!	!	!	!LO:TX:Z=22:t=Text&colon; O quam terribilis est!
0c	0e	0g	0cc
=66	=66	=66	=66
1A	1e	1a	1cc
2G\	2B\	2r	4dd\
.	.	.	4ee\
2F\	[2c\	2a\	[2ff\
=67	=67	=67	=67
2A\	2c\]	2f\	2ff\]
2G\	2B\	2g\	1ee
2.F\	2B\	1a	.
.	4A/	.	2dd\
4E\	4B\	.	.
=68	=68	=68	=68
1C	1c	0g	0ee
2r	2r	.	.
2C/	2c\	.	.
=69	=69	=69	=69
2.E\	2.c\	0r	0r
4F\	4A/	.	.
2G\	2B\	.	.
[2A\	[2c\	.	.
=70	=70	=70	=70
4A\]	4c\]	0r	0r
4F\	4B\	.	.
1G	4A/	.	.
.	4G/	.	.
.	1A	.	.
2F#i\	.	.	.
=71	=71	=71	=71
1.G	2.G/	0r	0r
.	4A/	.	.
.	4B\	.	.
.	4c\	.	.
[2F\	[2d\	.	.
=72	=72	=72	=72
4F\]	4d\]	0r	1r
4E\	4B\	.	.
4D\	1c	.	.
4C/	.	.	.
1D	.	.	1ff
.	2B\	.	.
=73	=73	=73	=73
1C	1c	0g	1ee
1r	1r	.	2dd\
.	.	.	[2ee\
=74	=74	=74	=74
0r	0r	1g	4ee\]
.	.	.	4dd\
.	.	.	4cc\
.	.	.	4b\
.	.	1f	1a
=75	=75	=75	=75
0r	0r	1e	2.g/
.	.	.	4a/
.	.	2d\	4b\
.	.	.	4cc\
.	.	[2f\	[2dd\
=76	=76	=76	=76
0r	0r	4f\]	4dd\]
.	.	4e\	4g/
.	.	4d\	1cc
.	.	4c\	.
.	.	1d	.
.	.	.	2b\
=77	=77	=77	=77
0C	0e	1c	1cc
.	.	[1g	[1cc
=78	=78	=78	=78
0G	0d	1g]	1cc]
.	.	1g	1b
=79	=79	=79	=79
[0C	0c	0G	1cc
.	.	.	2r
.	.	.	2d/
=80	=80	=80	=80
0C]	0c	1G	2.e/
.	.	.	4f/
.	.	1E	2g/
.	.	.	[2a/
=81	=81	=81	=81
1D	1A	1F	4a/]
.	.	.	4g/
.	.	.	1f
1D	1B	1F	.
.	.	.	4e/
.	.	.	4d/
=82	=82	=82	=82
0C	0c	0G	1e
.	.	.	2r
.	.	.	2g/
=83	=83	=83	=83
0G	1d	1r	2.b\
.	.	.	4cc\
.	1B	1g	2dd\
.	.	.	[2ee\
=84	=84	=84	=84
1A	1c	1e	4ee\]
.	.	.	4dd\
.	.	.	1cc
1A	1c	1f	.
.	.	.	4b\
.	.	.	4a/
=85	=85	=85	=85
0G	1d	0g	2.b\
.	.	.	4cc\
.	1B	.	2dd\
.	.	.	[2ee\
=86	=86	=86	=86
0G	1e	1g	4ee\]
.	.	.	4dd\
.	.	.	1cc
.	1d	1g	.
.	.	.	2b\
=87	=87	=87	=87
0C;	0c;	0g;	0cc;
=88	=88	=88	=88
!	!	!	!LO:TX:Z=29:t=Text&colon; Gloria patri deo cuncta regenti
3%2GV	0r	0r	0r
3%2G	.	.	.
3%2GZ	.	.	.
=89	=89	=89	=89
3%4cV	0r	0r	0r
3%2cZ	.	.	.
=90	=90	=90	=90
3%4BV	0r	3%2GV	0r
.	.	3%2G	.
3%2BZ	.	3%2GZ	.
=91	=91	=91	=91
3%2AV	0r	3%4cV	0r
3%2A	.	.	.
3%2AZ	.	3%2cZ	.
=92	=92	=92	=92
3%4GV	0r	3%4BV	3%2gV
.	.	.	3%2g
3%2GZ	.	3%2BZ	3%2gZ
=93	=93	=93	=93
0r	0r	3%2AV	3%4ccV
.	.	3%2A	.
.	.	3%2AZ	3%2ccZ
=94	=94	=94	=94
0r	3%2GV	3%4GV	3%4bV
.	3%2G	.	.
.	3%2GZ	3%2GZ	3%2bZ
=95	=95	=95	=95
3%4FV	3%4cV	0r	3%2aV
.	.	.	3%2a
3%2FZ	3%2cZ	.	3%2aZ
=96	=96	=96	=96
3%4GV	3%4BV	3%2dV	3%2.gV
.	.	3%2d	.
.	.	.	3f/
3%2GZ	3%2BZ	3%2dZZ	3e/
.	.	.	3d/Z
=97	=97	=97	=97
3%4DV	3%2AV	3%4dV	3%4gV
.	3%2A	.	.
3%2DZ	3%2AZ	3%2dZ	3%2f#iZ
=98	=98	=98	=98
3%2dV	3%4GV	3%2.BV	0g
3%2d	.	.	.
.	.	3A/	.
3%2cZ	3%2GZ	3%2GZ	.
=99	=99	=99	=99
3%2BV	0r	3%2gV	3%2ddV
3A\	.	3f\	3%2dd
3G\	.	3e\	.
3%2AZ	.	3%2fZ	3%2ccZ
=100	=100	=100	=100
0G	3%2dV	3%2.gV	3%2bV
.	3%2d	.	3a/
.	.	3f\	3g/
.	3%2cZ	3%2eZ	3%2aZ
=101	=101	=101	=101
3%4DV	3%2BV	3%4dV	3%4gV
.	3A/	.	.
.	3G/	.	.
3%2DZ	3%2AZ	3%2dZ	3%2f#iZ
=102	=102	=102	=102
3%4EV	0G	0B	0g
3%2EZ	.	.	.
=103	=103	=103	=103
3%4FV	3%4AV	0r	0r
3%2FZ	3%2AZ	.	.
=104	=104	=104	=104
3%2.GV	3%4BV	3%4dV	0r
3F\	.	.	.
3E\	3%2BZ	3%2dZ	.
3D\Z	.	.	.
=105	=105	=105	=105
0C	3%4cV	3%4eV	0r
.	3%2cZ	3%2eZ	.
=106	=106	=106	=106
0r	3%2.dV	3%4fV	3%4aV
.	3c\	.	.
.	3B\	3%2fZ	3%2aZ
.	3A/Z	.	.
=107	=107	=107	=107
0r	3%4GV	3%2.gV	3%4bV
.	.	3f\	.
.	3%2GZ	3e\	3%2bZ
.	.	3d\Z	.
=108	=108	=108	=108
0r	3%4AV	3%4cV	3%4ccV
.	3%2AZ	3%2cZ	3%2ccZ
=109	=109	=109	=109
3%4GV	3%4BV	3%4gV	3%2.ddV
.	.	.	3cc\
3%2GZ	3%2BZ	3%2gZ	3b\
.	.	.	3a/Z
=110	=110	=110	=110
3%2GV	3%2BV	3d\V	3%2gV
.	.	3e\	.
3%2.F	3%4cZ	3%4fZ	3%2.a
3E\Z	.	.	3f/Z
=111	=111	=111	=111
3%2CV	3%2cV	3%2eV	3%4gV
3%4DZ	3%4AZ	3%4dZ	.
.	.	.	3%2f#iZ
=112	=112	=112	=112
0d	0G	0B	0g
=113	=113	=113	=113
1G	1B	1d	1g
1G	1B	1d	1g
=114	=114	=114	=114
1F	1c	1f	1a
1A	1c	2e\	1a
.	.	2f\	.
=115	=115	=115	=115
0G	2d\	[0g	2b\
.	2e\	.	1cc
.	1d	.	.
.	.	.	2b\
=116	=116	=116	=116
0C	0c	0g]	0cc
=117	=117	=117	=117
1r	1r	1r	1r
1C	1c	1g	1ee
=118	=118	=118	=118
[1F	1.c	1.a	1.ff
2F\]	.	.	.
2F\	2c\	2a\	2ff\
=119	=119	=119	=119
1C	1c	1g	1ee
1D	1A	1f	1dd
=120	=120	=120	=120
1E	1G	2e\	2.cc\
.	.	2c\	.
.	.	.	4b\
1F	1A	1d	4a/
.	.	.	4g/
.	.	.	2a/
=121	=121	=121	=121
1E	2B\	1e	2g/
.	2G/	.	2cc\
2D\	4A/	2f\	2dd\
.	4B\	.	.
2C/	[2c\	2g\	2ee\
=122	=122	=122	=122
1F	1c]	1a	1ff
2C/	2c\	1g	2ee\
2G\	2B\	.	[2dd\
=123	=123	=123	=123
1A	1c	2e\	4dd\]
.	.	.	4cc\
.	.	2f\	1cc
1G	1d	1g	.
.	.	.	2b\
=124	=124	=124	=124
0Cl	0cl	0gl	0ccl
==	==	==	==
*-	*-	*-	*-
!!!RDF**kern: l=long note in original notation
!!!RDF**kern: i=editorial accidental
!!!RDF**kern: V=start of tuplet marker
!!!RDF**kern: Z=end of tuplet marker
!!!ENC:	The Other Josquin/Jesse Rodin 2013
!!!END:	2013/05/18/
!!!EED:	Jesse Rodin
!!!EEV:	2014/01/08/
!!attribution-level@Jos: 4 (questionable)
!!!ONB:	Translated from MusicXML and edited on 2014/01/08/ by Craig Sapp
!!muse2ps: C^@{COA}?\n@{SCT}^i2I150v85,85,85,150c190
